X:1
T:James Gibb editions
T:O Domine Jesu Christe - Ingegneri
T:#
%%score [ 1 2 3 4 ]
L:1/8
Q:1/4=108
M:4/4
K:F
V:1 treble nm="Alto" snm="A"
V:2 treble-8 nm="Tenor I" snm="T I"
V:3 treble-8 nm="Tenor II" snm="T II"
V:4 bass nm="Bass" snm="B"
V:1
"^O Domine Jesu Christe""^Marco Antonio Ingegneri\n(1547-92)" E8 | D6 E2 | F4 D4- | D4 C4 | %4
w: O|Do- mi-|ne Je\-|* su|
 (=B,2 C4 B,2) | C8 | z2 C4 D2- | D2 F2 E4- | E4 z4 | z4 C4 | D4 E2 F2- |[M:4/4] F2 E2 D4 | C4 z4 | %13
w: Chri\- * *|ste,|a- do\-|* ro te||in|cru- ce vul\-|* ne- ra-|tum,|
 z4 D4- | D4 ^C4 | D8 | E8 | F4 G2 C2 | D2 E2 C2 F2 | D8 | D8 | z2 E4 _E2- | E2 D2 D4 | z2 F4 F2- | %24
w: fel\-|* le|et|a-|ce- to, et|a- ce- to po-|ta-|tum:|te de\-|* pre- cor,|te de\-|
 F2 E2 E4 | z2 F4 E2 | D2 E4 D2 | ^C2 D4 C2 | D2 !courtesy!=C4 B,2 | A,2 F4 E2 | D2 E4 D2 | %31
w: * pre- cor,|ut tu-|a vul- ne-|ra, ut tu-|a vul- ne-|ra, ut tu-|a vul- ne-|
 C2 A,4 D2 | C3 C C2 A,2- | A,2 D2 C3 C | C4 (F4- | F2 D4) C2 | D8 | C8 | C8 | z8 | z8 | G8 | %42
w: ra, sint re-|me- di- um, sint|* re- me- di-|um a\-|* * ni-|mae|me-|ae,|||mors-|
 E4 F4- | F4 D4 | C4 A,4 | =B,2 (C4 B,2) | (C3 D E4- | E4) z4 | z8 | G8 | E4 F4- | %51
w: que tu\-|* a|sit vi-|ta me\- *|a, * *|||mors-|que tu\-|
[Q:1/4=106] F4[Q:1/4=103] D4 |[Q:1/4=101] C4[Q:1/4=98] A,4 | %53
w: * a|sit vi-|
[Q:1/4=96] =B,2[Q:1/4=94] (C4[Q:1/4=92] B,2) |[Q:1/4=92] !fermata!C8 |] %55
w: ta me\- *|a.|
V:2
 c8 | =B6 B2 | c4 !courtesy!_B4- | B4 A4 | G8 | G8 | z2 A4 B2- | B2 A2 c4 | G4 B4- | B4 A4- | %10
w: O|Do- mi-|ne Je\-|* su|Chri-|ste,|a- do\-|* ro te|a- do\-|* ro|
 A4 c4 |[M:4/4][K:treble-8] z2 c4 B2 | A2 G4 F2 | (B2 A4 G2) | A8 | B4 A4 | z8 | d4 c4 | B4 A4 | %19
w: * te|in cru-|ce vul- ne-|ra\- * *|tum,|fel- le||et a-|ce- to|
 z2 G2 B4 | A8 | z4 c4 | B6 B2 | A4 d4 | c6 c2 | A8- | A4 z4 | E8 | F2 E2 F2 G2 | A8 | z8 | %31
w: po- ta-|tum:|te|de- pre-|cor, te|de- pre-|cor,||ut|tu- a vul- ne-|ra,||
 z2 F4 G2 | A3 A A2 F2- | F2 G2 A3 A | A4 c4- | c2 B2 A3 G | F4 (B3 A | G8) | A8- | A8 | z4 d4 | %41
w: sint re-|me- di- um, sint|* re- me- di-|um a\-|* ni- mae *|* me\- *||ae,||mors-|
 B4 c4- | c4 A4 | B8 | A4 E4 | G8 | G8- | G4 z4 | z4 d4 | B4 c4- | c4 A4 | B8 | A4 E4 | G8 | %54
w: que tu\-|* a|sit|vi- ta|me-|a,||mors-|que tu\-|* a|sit|vi- ta|me-|
 !fermata!G8 |] %55
w: a.|
V:3
 G8 | G6 G2 | A4 F4- | F4 F4 | D8 | E8 | z2 F4 F2- | F2 F2 G4 | E4 (F4 | G4) (A2 G2 | F4) G4- | %11
w: O|Do- mi-|ne Je\-|* su|Chri-|ste,|a- do\-|* ro te|a- do\-|* ro *|* te|
[M:4/4][K:treble-8] G8 | E4 D2 C2 | D6 E2 | F4 E4 | G4 ^F4 | G4 A4- | A2 B4 A2 | G4 (ABcd | %19
w: |in cru- ce|vul- ne-|ra- tum,|fel- le|et a\-|* ce- to,|po- ta\- * * *|
 B3 A G4- | G2 ^FE) F4 | z2 G4 G2- | G2 F2 F4 | z2 A4 A2- | A2 G2 G4 | z4 z2 E2 | F2 E2 F2 G2 | %27
w: |* * * tum:|te de\-|* pre- cor,|te de\-|* pre- cor,|ut|tu- a vul- ne-|
 A8- | A4 z4 | z4 z2 E2 | F2 E2 F2 G2 | A4 z4 | z4 z2 D2- | D2 B,2 F3 F | F4 A4- | A2 G2 (F2 E2) | %36
w: ra,||ut|tu- a vul- ne-|ra,|sint|* re- me- di-|um a\-|* ni- mae *|
 (D4 F4- | F2 ED E4) | F8 | c8 | G4 B4- | B4 G4 | A4 F4- | F4 G4 | (E6- DC | D2 _E2 D4) | C4 z4 | %47
w: me\- *||ae,|mors-|que tu\-|* a|sit vi\-|* ta|me\- * *||a,|
 c8 | A4 B4- | B4 G4 | A4 F4- | F4 G4 | (E6 DC | D2 _E2 D4) | !fermata!!courtesy!=E8 |] %55
w: mors-|que tu\-|* a|sit vi\-|* ta|me\- * *||a.|
V:4
 C,8 | G,,6 C,2 | F,,4 B,,4- | B,,4 F,,4 | G,,8 | C,8 | z2 F,,4 B,,2- | B,,2 D,2 C,4 | C,4 (D,4 | %9
w: O|Do- mi-|ne Je\-|* su|Chn-|ste,|a- do\-|* ro te|a- do\-|
 E,4) (F,2 E,2 | D,4) C,4- |[M:4/4] C,4 z4 | C,4 B,,2 A,,2 | G,,2 F,,2 B,,4 | A,,8 | z4 D,4- | %16
w: * ro *|* te||in cru- ce|vul- ne- ra-|tum,|fel\-|
 D,4 ^C,4 | D,4 E,2 F,2- | F,2 E,2 F,4 | (G,4 G,,4) | D,8 | z2 C,4 _E,2- | E,2 B,,2 B,,4 | %23
w: * le|et a- ce\-|* to po-|ta\- *|tum:|te de\-|* pre- cor,|
 z2 D,4 F,2- | F,2 C,2 C,4 | z2 D,4 ^C,2 | D,2 !courtesy!=C,4 B,,2 | A,,8- | A,,4 z4 | D,6 ^C,2 | %30
w: te de\-|* pre- cor,|ut tu-|a vul- ne-|ra,||ut tu-|
 D,2 !courtesy!=C,4 B,,2 | A,,2 D,4 B,,2 | F,3 F, F,4 | z8 | z4 F,,4- | F,,2 G,,2 A,,4 | (B,,8 | %37
w: a vul- ne-|ra, sint re-|me- di- um||a\-|* ni- mae|me\-|
 C,8) | F,,8 | z4 F,4- | F,4 D,4 | _E,8 | C,4 D,4 | B,,6 G,,2 | (A,,8 | G,,8) | C,8- | C,4 F,4- | %48
w: |ae,|mors\-|* que|tu-|a sit|vi- ta|me\-||a,|* mors\-|
 F,4 D,4 | _E,8 | C,4 D,4 | B,,6 G,,2 | (A,,8 | G,,8) | !fermata!C,8 |] %55
w: * que|tu-|a sit|vi- ta|me\-||a.|

